X: 2
T: The Tempest
R: reel
M: 4/4
L: 1/8
K: Ddor
(3ABc|:d2 cA GE ~E2|DEcE dEcE|AdcA GEcE|EDCD ED (3ABc|
d2 cA GE ~E2|DEcE dEcE|DEFA GEcE|EDCD ED ~D2:|
|:d2 ed cAGc|AdcA GE ~E2|d2 ed cdef|edcA da{b}ag|
eage dcAB|cAGc AcGE||DEFA GEcE|EDCD ED (3ABc:|